X: 1
T: Jackets Green, The
M: 4/4
L: 1/8
R: barndance
K: Dmaj
A2 |: d2dc B2AF | E>FED B,2DE | F2F2 E2E2 | D6 A2 | 
A2F2 A2Bc | d3c B3A | BcBA FEFA | B6 A2 | 
A2F2 A2Bc | d3c B3A | BcBA FEFA | B6 c2 | 
d2dc B2AF | E>FED B,2DE | F2F2 E2E2 | D6 A2 :|
